X:1142
T:Year of Jubilo
T:Kingdom Coming
S:Colin Hume's website,  colinhume.com  - chords can also be printed below the stave.
Q:1/2=112
M:2/2
L:1/4
%%MIDI ratio 3 1
K:C
G | "C"CE EG | Ge e/d/c/A/ | "C"Gc cE | "G7"D3 G |\
"C"CE EG | Ge e/d/c/A/ | "C"Gc "G7"d>B | "C"c2 zG |
"F"A>A Ac | "C"G>A G/F/E/F/ | "C"Gc cE | "G7"D3 G |\
"C"CE EG | Ge e/d/c/A/ | "C"Gc "G7"d>B | "C"c2 zG |
"F"A>B c>A | c3 A | "C"G>A GE | "G7"G3 G |\
"C"CE EG | Ge e/d/c/A/ | "C"Gc "G7"d>B | "C"c3 |]

